X:1
T:Title
%%score { ( 1 3 ) | ( 2 4 ) }
L:1/8
M:4/4
K:Bb
V:1 treble nm="Grand Piano"
V:3 treble 
V:2 bass 
V:4 bass 
V:1
 z4 z2[Q:1/4=104] [B,D][CE] | [DF]2 [DF]2 [EG]3 [DF] | [B,D]2 [DF]4 z2 | G2 G2 B3 G | [DF]6 AB | %5
 c2 c2 d3 c | A2 c4 z2 | A4 [FG]4 | [=EG]6 [FA][GB] | [Ac]2 A2 G3 F | [DF]2 [DB]4 z2 | %11
 [DB]2 [B,DG]2 [B,DG]3 [DGB] | [D^FA]6 [DGB][CFA] | [B,G]2 [B,GB]2 [B,FA]2 [B,EG]2 | %14
 [B,DF]2 [FB]2 [FB]2 [Gc]2 | z4 c4 |[M:3/4] [B,DB]6 |] %17
V:2
 z4 z2 [B,,F,][B,,F,] | [B,,B,]2 [B,,B,]2 [B,,B,]3 [B,,B,] | [B,,F,]2 [B,,B,]4 z2 | %3
 [E,B,E]2 [E,B,E]2 [E,G,E]3 [E,B,E] | [B,,B,]6 [F,CE][F,B,D] | [F,A,F]2 [F,A,F]2 [F,B,F]3 [F,A,F] | %6
 [F,CF]2 [F,A,F]4 z2 | [F,CF]4 [D,=B,]4 | [C,C]6 [F,C][F,C] | [F,C]2 [F,CF]2 [F,A,E]3 [F,A,E] | %10
 [B,,B,]2 [B,,F,]4 z2 | [G,,G,]2 G,,2 G,,3 G,, | D,6 D,D, | E,2 E,2 E,2 E,2 | z2 D2 D,2 E,2 | %15
 [F,B,F]4 F2 z2 |[M:3/4] G,,6 |] %17
V:3
 x8 | x8 | x8 | x8 | x8 | x8 | x8 | x8 | x8 | x8 | x8 | x8 | x8 | x8 | z4 B,4 | d4 z2 E2 | %16
[M:3/4] x6 |] %17
V:4
 x8 | x8 | x8 | x8 | x8 | x8 | x8 | x8 | x8 | x8 | x8 | x8 | x8 | x8 | B,,4 z4 | z4 [F,A,]4 | %16
[M:3/4] x6 |] %17

